X:101
T:Rowland Hornpipe
R:Hornpipe
O:England
M:3/2
N:Of a type known as "rolling hornpipes"
A:Lancashire
B:Winder
K:D
AFDF EDCE D2EF | GFED C2E2 DEFD | \
AFDF EDCE D2d2 | AGFE D2F2 EFGE :|*
|:ABcA BcdB c2BA | GFED C2E2 DEFD |\
ABcA fedc d2cB | AGFE D2F2 EFGE :|*
|:fgaf efge d2df | efge c2ce defd |\
fgaf efge d2cB | AGFE D2F2 EFGE :|*
|:AFAF BGBG AcBA | GFED C2E2 DEFD |\
AFAF BGBG BdcB | AGFE D2F2 EFGE :|**
